X:1
T:2. Agnus Dei
T: Johan August Söderman (1832 - 1876)
T:Andeliga Sånger (1872)
T:2. Agnus Dei
T:Coro
C:Johan August Söderman
C:(1832 - 1876)
%%score [ ( 1 2 ) 3 4 ( 5 6 ) ]
L:1/8
Q:1/4=80
M:4/4
K:F
V:1 treble nm="Soprano" snm="S"
V:2 treble 
V:3 treble nm="Alto" snm="A"
V:4 treble-8 nm="Tenore" snm="T"
V:5 bass nm="Basso" snm="B"
V:6 bass 
V:1
"^Andante"!p! (c4 A2) (BA) | A4 F2 z2 |!mf! d3 c (dc) (dc) | d4 c2 z2 | z8 | %5
w: A- * gnus _|De- i|mi- se- re- * re _|no- bis||
!p!!<(! F3!<)! f e2 d2 |!mf! c3 A (GA) (GA) |!>(! G4!>)! F2 z2 | z8 | z8 |"^marc." (c4 G2) A2 | %11
w: A- gnus De- i|mi- se- re- * re _|no- bis.|||Mi- * se-|
 B4 (A2 G2) | A2"^molto cresc."!<(! A2 A2!<)! A2 |!f! d3 d G2 G2 | c4 F4 | B3 B E2 E2 | A4 A2 z2 | %17
w: re- re _|mi- se- re- re|Mi- se- re- re|no- bis,|mi- se- re- re|no- bis|
!ppp! G6 G2 | G2 G2 z4 |!p! (c4 A2) (BA) |!<(! ^G4!<)! G4 | A3 F (GF) (GF) |!>(! G8!>)! | F6 z2 |] %24
w: mi- se-|re- re|A- * gnus _|De- i|mi- se- re- * re _|no-|bis.|
V:2
 (A4 F2) F2 | x8 | x8 | x8 | x8 | x8 | x8 | x8 | x8 | x8 | x8 | x8 | x8 | x8 | x8 | x8 | x8 | x8 | %18
 x8 | (A4 F2) F2 | F4 F4 | E3 F (GF) (GF) | x8 | x8 |] %24
V:3
!p! (F4 C2) (DC) | E4 C2 z2 |!mf! F3 E (FE) (FE) | F4 E2 z2 | z8 |!p!!<(! FF F4!<)! F2 | %6
w: A- * gnus _|De- i|mi- se- re- * re _|no- bis||A- gnus De- i|
!mf! E3 F (DF) (DF) |!>(! (D2 E2)!>)! F2 z2 | z8 |"^marc." (G4 D2) E2 | F4 F4 | D2 _D2 C2 C2 | %12
w: mi- se- re- * re _|no- * bis.||Mi- * se-|re- re|mi- se- re- re|
 C2"^molto cresc."!<(! ^C2 D2 D2!<)! |!f! D4 C4 | C3 C B,2 B,2 | (B,4 A,4) | A,6 z2 |!ppp! D6 D2 | %18
w: mi- se- re- re|no- bis,|mi- se- re- re|no- *|bis|mi- se-|
 D2 D2 z4 |!p! (F4 C2) (DC) |!<(! =B,4!<)! B,4 | B,3 A, D2 D2 |!>(! (D4 E4)!>)! | F6 z2 |] %24
w: re- re|A- * gnus _|De- i|mi- se- re- re|no- *|bis.|
V:4
 z8 |!p! B3 B A2 z2 |!mf! A3 c (Ac) (Ac) | A4 c2 z2 |!p! (c4 A2) (BA) |!<(! _A4!<)! G4 | %6
w: |A- gnus Dei|mi- se- re- * re _|no- bis|A- * gnus _|De- i|
!mf! B3 A (BA) (BA) |!>(! B4!>)! A2 z2 |"^marc." (c4 G2) A2 | B4 B4 | (A4 B2) A2 | G4 (c2 B2) | %12
w: mi- se- re- * re _|no- bis.|Mi- * se-|re- re|mi- * se-|re- re, _|
 A2"^molto cresc."!<(! G2 ^F2!<)! F2 |!f! (G2 F2) E4 | F2 E2 D2 D2 | (E2 D2 ^C4) | D6 z2 | %17
w: mi- se- re- re|no- * bis,|mi- se- re- re|no- * *|bis|
!ppp! F6 F2 | F2 F2 z4 | z8 |!<(! F3 f!<)! e2 d2 | c3 A (BA) (BA) |!>(! B8!>)! | A6 z2 |] %24
w: mi- se-|re- re||A- gnus De- i|mi- se- re- * re _|no-|bis.|
V:5
 z8 |!p! C,3 C, F,2 z2 |!mf! D,3 A, (D,A,) (D,A,) | D,4 A,2 z2 |!p! (A,4 F,2) F,2 | %5
w: |A- gnus Dei|mi- se- re- * re _|no- bis|A- * gnus|
!<(! F,4!<)! F,4 |!mf! C,3 D, (G,D,) (G,D,) |!>(! (G,2 C,2)!>)! F,2 z2 | z8 | z8 | z8 | %11
w: De- i|mi- se- re- * re _|no- * bis.||||
"^marc." G,4 (D,2 E,2) | (F,2!<(! E,2)"^molto cresc." (D,2!<)! C,2) |!f! B,,3 B,, B,,2 B,,2 | %14
w: Mi- se- *|re- * re _|mi- se- re- re|
 A,,4 A,,4 | G,,3 G,, G,,2 G,,2 | F,,4 F,,2 z2 |!ppp! B,,6 B,,2 | B,,2 B,,2 z4 |!p! C,6 C,2 | %20
w: no- bis|mi- se- re- re|no- bis|mi- se-|re- re|A- gnus|
!<(! C,4!<)! C,4 | C,3 D, (G,,D,) (G,,D,) |!>(! (G,,4 C,4)!>)! | C,6 z2 |] %24
w: De- i|mi- se- re- * re _|no- *|bis.|
V:6
 x8 | x8 | x8 | x8 | (F,4 C,2) (D,C,) | =B,,4 B,,4 | x8 | x8 | x8 | x8 | x8 | x8 | x8 | x8 | x8 | %15
w: |||||De- i||||||||||
 x8 | x8 | x8 | x8 | x8 | x8 | x8 | x8 | F,,6 z2 |] %24
w: ||||||||bis.|

